svgs/solid/pager.svg

<svg xmlns="http://www.w3.org/2000/svg" viewBox="0 0 512 512"><!-- Font Awesome Pro 6.0.0-alpha2 by @fontawesome - https://fontawesome.com License - https://fontawesome.com/license (Commercial License) --><path d="M448 64H64C28.625 64 0 92.625 0 128V384C0 419.375 28.625 448 64 448H448C483.375 448 512 419.375 512 384V128C512 92.625 483.375 64 448 64ZM160 368H80C71.125 368 64 360.875 64 352V336C64 327.125 71.125 320 80 320H160V368ZM288 352C288 360.875 280.875 368 272 368H192V320H272C280.875 320 288 327.125 288 336V352ZM448 224C448 241.625 433.625 256 416 256H96C78.375 256 64 241.625 64 224V160C64 142.375 78.375 128 96 128H416C433.625 128 448 142.375 448 160V224Z"/></svg>

<svg xmlns="http://www.w3.org/2000/svg" viewBox="0 0 512 512"><!--! Font Awesome Pro 6.0.0-alpha3 by @fontawesome - https://fontawesome.com License - https://fontawesome.com/license (Commercial License) --><path d="M448 64H64C28.63 64 0 92.63 0 128v256c0 35.38 28.62 64 64 64h384c35.38 0 64-28.62 64-64V128C512 92.63 483.4 64 448 64zM160 368H80C71.13 368 64 360.9 64 352v-16C64 327.1 71.13 320 80 320H160V368zM288 352c0 8.875-7.125 16-16 16H192V320h80c8.875 0 16 7.125 16 16V352zM448 224c0 17.62-14.38 32-32 32H96C78.38 256 64 241.6 64 224V160c0-17.62 14.38-32 32-32h320c17.62 0 32 14.38 32 32V224z"/></svg>
